X: 24739
T: Madam If You Please
R: hornpipe
M: 4/4
K: Gmajor
"G"DGBD G2 "D"FD|"Am7"GAcd "D"fdge|fdcA dcAG|FDBA GFDC|
"G"DGGF DGBA|"Am7"GAcd "D"f2 ge|"G"dB "Am7"(3cBA "G"BG"D"AF||1 "G"D2 G2 G2 GF:|2 "G"D2 G2 G2 Bc||
|:"D"dcde fABg|fdcA d2 de|fedc (3ABc AG|FDBA GFDC|
"G"DGGF GBAG|"D"FGAB "C"cd (3efg|"D"fdce dcAG||1 "C"G2 GF "G"G2 Bc:|2 "C"G2 GF "G"G4||

